X: 8
T: Tha Mi Sgith
R: strathspey
M: 4/4
L: 1/8
K: Ador
|: A2 a a/a/ g e g g/g/ | edBA GAB/B/G |
A2 a a/a/ g e g g/g/ |1 edBG A2 AG :|2 edBG A2 A2
|: edBA GABd | edBA B2 B g/f/ |edBA GABd |1 edGB A2 A g/f/ :|2 edGB A2A2 |


Tune 647	Setting 21706

